X:1
T:The Rosewood
R:jig
M:6/8
L:1/8
K:A
e|:agf efg|aed cBA|~a2a cde|fBB ~B2e|
|agf efg|aed cBA|def Bcd|1 cAG A2e:|2 cAG A2B|]
|:Ace Ace|fdc ~d2c|B^df ~b2a|gfg efg|
|agf edc|fed cBA|def Bcd|1 cAG A2B:|2 cAG A2e|]